documentation/public/assets/images/slider-14-do-and-dont-7.svg

<svg width="256" height="44" viewBox="0 0 256 44" fill="none" xmlns="http://www.w3.org/2000/svg">
<rect y="6" width="256" height="4" rx="2" fill="#B0B0B0"/>
<rect y="6" width="215" height="4" rx="2" fill="#1E71F6"/>
<circle cx="215" cy="8" r="8" fill="#194CCC"/>
<path d="M204.909 31.2045C205.386 31.2083 205.864 31.2992 206.341 31.4773C206.818 31.6553 207.254 31.9508 207.648 32.3636C208.042 32.7727 208.358 33.3314 208.597 34.0398C208.835 34.7481 208.955 35.6364 208.955 36.7045C208.955 37.7386 208.856 38.6572 208.659 39.4602C208.466 40.2595 208.186 40.9337 207.818 41.483C207.455 42.0322 207.011 42.4489 206.489 42.733C205.97 43.017 205.383 43.1591 204.727 43.1591C204.076 43.1591 203.494 43.0303 202.983 42.7727C202.475 42.5114 202.059 42.1496 201.733 41.6875C201.411 41.2216 201.205 40.6818 201.114 40.0682H202.5C202.625 40.6023 202.873 41.0436 203.244 41.392C203.619 41.7367 204.114 41.9091 204.727 41.9091C205.625 41.9091 206.333 41.517 206.852 40.733C207.375 39.9489 207.636 38.8409 207.636 37.4091H207.545C207.333 37.7273 207.081 38.0019 206.79 38.233C206.498 38.464 206.174 38.642 205.818 38.767C205.462 38.892 205.083 38.9545 204.682 38.9545C204.015 38.9545 203.403 38.7898 202.847 38.4602C202.294 38.1269 201.85 37.6705 201.517 37.0909C201.188 36.5076 201.023 35.8409 201.023 35.0909C201.023 34.3788 201.182 33.7273 201.5 33.1364C201.822 32.5417 202.273 32.0682 202.852 31.7159C203.436 31.3636 204.121 31.1932 204.909 31.2045ZM204.909 32.4545C204.432 32.4545 204.002 32.5739 203.619 32.8125C203.241 33.0473 202.939 33.3655 202.716 33.767C202.496 34.1648 202.386 34.6061 202.386 35.0909C202.386 35.5758 202.492 36.017 202.705 36.4148C202.92 36.8087 203.214 37.1231 203.585 37.358C203.96 37.589 204.386 37.7045 204.864 37.7045C205.223 37.7045 205.559 37.6345 205.869 37.4943C206.18 37.3504 206.451 37.1553 206.682 36.9091C206.917 36.6591 207.1 36.3769 207.233 36.0625C207.366 35.7443 207.432 35.4129 207.432 35.0682C207.432 34.6136 207.322 34.1875 207.102 33.7898C206.886 33.392 206.587 33.0701 206.205 32.8239C205.826 32.5777 205.394 32.4545 204.909 32.4545ZM214.825 43.1591C214.159 43.1591 213.558 43.0265 213.024 42.7614C212.49 42.4962 212.062 42.1326 211.74 41.6705C211.418 41.2083 211.242 40.6818 211.212 40.0909H212.575C212.628 40.6174 212.867 41.053 213.291 41.3977C213.719 41.7386 214.231 41.9091 214.825 41.9091C215.303 41.9091 215.727 41.7973 216.098 41.5739C216.473 41.3504 216.767 41.0436 216.979 40.6534C217.195 40.2595 217.303 39.8144 217.303 39.3182C217.303 38.8106 217.191 38.358 216.967 37.9602C216.748 37.5587 216.445 37.2424 216.058 37.0114C215.672 36.7803 215.231 36.6629 214.734 36.6591C214.378 36.6553 214.013 36.7102 213.638 36.8239C213.263 36.9337 212.954 37.0758 212.712 37.25L211.393 37.0909L212.098 31.3636H218.143V32.6136H213.28L212.871 36.0455H212.939C213.178 35.8561 213.477 35.6989 213.837 35.5739C214.196 35.4489 214.571 35.3864 214.962 35.3864C215.674 35.3864 216.308 35.5568 216.865 35.8977C217.426 36.2348 217.865 36.697 218.183 37.2841C218.505 37.8712 218.666 38.5417 218.666 39.2955C218.666 40.0379 218.5 40.7008 218.166 41.2841C217.837 41.8636 217.382 42.322 216.803 42.6591C216.223 42.9924 215.564 43.1591 214.825 43.1591ZM220.923 43V41.9773L224.764 37.7727C225.215 37.2803 225.586 36.8523 225.878 36.4886C226.17 36.1212 226.385 35.7765 226.526 35.4545C226.67 35.1288 226.741 34.7879 226.741 34.4318C226.741 34.0227 226.643 33.6686 226.446 33.3693C226.253 33.0701 225.988 32.839 225.651 32.6761C225.313 32.5133 224.935 32.4318 224.514 32.4318C224.067 32.4318 223.677 32.5246 223.344 32.7102C223.014 32.892 222.759 33.1477 222.577 33.4773C222.399 33.8068 222.31 34.1932 222.31 34.6364H220.969C220.969 33.9545 221.126 33.3561 221.44 32.8409C221.755 32.3258 222.183 31.9242 222.724 31.6364C223.27 31.3485 223.882 31.2045 224.56 31.2045C225.241 31.2045 225.846 31.3485 226.372 31.6364C226.899 31.9242 227.312 32.3125 227.611 32.8011C227.91 33.2898 228.06 33.8333 228.06 34.4318C228.06 34.8598 227.982 35.2784 227.827 35.6875C227.675 36.0928 227.41 36.5455 227.031 37.0455C226.656 37.5417 226.135 38.1477 225.469 38.8636L222.855 41.6591V41.75H228.264V43H220.923Z" fill="#757575"/>
</svg>

<svg width="256" height="44" fill="none" xmlns="http://www.w3.org/2000/svg"><rect y="6" width="256" height="4" rx="2" fill="#B0B0B0"/><rect y="6" width="215" height="4" rx="2" fill="#1E71F6"/><circle cx="215" cy="8" r="8" fill="#194CCC"/><path d="M204.9 31.2c.49 0 .96.1 1.44.28.48.18.91.47 1.3.88.4.41.72.97.96 1.68a11.61 11.61 0 0 1 .06 5.42c-.2.8-.47 1.47-.84 2.02a3.6 3.6 0 0 1-3.1 1.68 3.8 3.8 0 0 1-1.74-.39 3.42 3.42 0 0 1-1.87-2.7h1.39c.13.53.37.97.74 1.32.38.35.87.52 1.49.52.9 0 1.6-.4 2.12-1.18.53-.78.79-1.89.79-3.32h-.1a3.58 3.58 0 0 1-1.72 1.36 3.53 3.53 0 0 1-4.3-1.68 4 4 0 0 1-.5-2c0-.71.16-1.36.48-1.95a3.7 3.7 0 0 1 1.35-1.42 3.8 3.8 0 0 1 2.06-.52Zm0 1.25c-.47 0-.9.12-1.28.36s-.68.56-.9.96c-.22.4-.33.84-.33 1.32 0 .49.1.93.32 1.32a2.39 2.39 0 0 0 2.16 1.29 2.41 2.41 0 0 0 1.81-.8c.24-.24.42-.52.55-.84a2.6 2.6 0 0 0-.13-2.27c-.21-.4-.51-.72-.9-.97a2.33 2.33 0 0 0-1.3-.37Zm9.92 10.7a4 4 0 0 1-1.8-.39 3.35 3.35 0 0 1-1.28-1.09c-.32-.46-.5-.99-.53-1.58h1.36c.06.53.3.96.72 1.3.43.35.94.52 1.53.52a2.42 2.42 0 0 0 2.16-1.26c.22-.39.32-.84.32-1.33 0-.5-.1-.96-.33-1.36a2.45 2.45 0 0 0-2.24-1.3 3.63 3.63 0 0 0-2.02.59l-1.32-.16.7-5.73h6.05v1.25h-4.86l-.4 3.44h.06a3.4 3.4 0 0 1 2.02-.66 3.57 3.57 0 0 1 3.22 1.9c.32.58.49 1.25.49 2s-.17 1.41-.5 2a3.65 3.65 0 0 1-3.34 1.87Zm6.1-.15v-1.02l3.84-4.2c.46-.5.83-.93 1.12-1.3.29-.36.5-.7.65-1.03.14-.32.21-.66.21-1.02a1.89 1.89 0 0 0-1.09-1.75 2.58 2.58 0 0 0-1.14-.25c-.44 0-.83.1-1.17.28-.33.18-.58.44-.76.77a2.4 2.4 0 0 0-.27 1.16h-1.34a3.28 3.28 0 0 1 1.75-3 3.88 3.88 0 0 1 1.84-.44c.68 0 1.29.15 1.81.44a3.15 3.15 0 0 1 1.69 2.79c0 .43-.08.85-.23 1.26-.16.4-.42.86-.8 1.36-.37.5-.9 1.1-1.56 1.81l-2.62 2.8v.09h5.41V43h-7.34Z" fill="#757575"/></svg>
